X:1
T:The Humors of Whiskey
M:6/8
L:1/8
K:C
 G/2G/2| cGE CEG| Adc BAG| cBc def| edcB-A G/2G/2| cGE| CEG| Adc BAG|\
 cBc def| ecB c2 G/2G/2| cGE CEG| Adc BAG| cBc def| edc B2 G| cGE CEG|\
 Adc BAG| cBc def| ecB c2 d| ecd edc| dBc dcB| cBc Adc| BGG G2 G| AFG ABc|\
 GEF GAB| cBc def| ecB c2||
